svg/Pictogram/pictograms-aem-0029-battery-explosion.svg

<?xml version="1.0" encoding="ISO-8859-1" standalone="yes"?>
<svg height="304.014" width="304.015">
  <metadata>
    <rdf:RDF xmlns:cc="http://web.resource.org/cc/" xmlns:dc="http://purl.org/dc/elements/1.1/" xmlns:rdf="http://www.w3.org/1999/02/22-rdf-syntax-ns#">
      <cc:Work rdf:about="">
        <dc:title></dc:title>
        <dc:description></dc:description>
        <dc:subject>
          <rdf:Bag>
            <rdf:li></rdf:li>
          </rdf:Bag>
        </dc:subject>
        <dc:publisher>
          <cc:Agent rdf:about="http://www.unece.org/trans/danger/publi/ghs/pictograms.html">
            <dc:title>Source: UNECE GHS of Classification and Labeling of Chemicals, Source: AEM Pictorial Database, Source: AEM Pictorial Database, Source: AEM Pictorial Database, Source: AEM Pictorial Database</dc:title>
          </cc:Agent>
        </dc:publisher>
        <dc:creator>
          <cc:Agent>
            <dc:title></dc:title>
          </cc:Agent>
        </dc:creator>
        <dc:rights>
          <cc:Agent>
            <dc:title></dc:title>
          </cc:Agent>
        </dc:rights>
        <dc:date></dc:date>
        <dc:format>image/svg+xml</dc:format>
        <dc:type rdf:resource="http://purl.org/dc/dcmitype/StillImage"/>
        <cc:license rdf:resource="http://en.wikipedia.org/wiki/Public_domain"/>
        <dc:language>en</dc:language>
      </cc:Work>
    </rdf:RDF>
  </metadata>
  <defs><marker id="ArrowEnd" markerHeight="3" markerUnits="strokeWidth" markerWidth="4" orient="auto" refX="0" refY="5" viewBox="0 0 10 10"><path d="M 0 0 L 10 5 L 0 10 z"/></marker><marker id="ArrowStart" markerHeight="3" markerUnits="strokeWidth" markerWidth="4" orient="auto" refX="10" refY="5" viewBox="0 0 10 10"><path d="M 10 0 L 0 5 L 10 10 z"/></marker> </defs>
  <g id="g2958" transform="matrix(1.3532768,0,0,1.3532781,-53.207834,-52.192858)">
    <path d="M 100.089 247.588L 187.687 247.588L 187.687 197.416L 100.089 197.416L 100.089 247.588z" style="stroke:#000000; stroke-width:4.2839999999999998; fill:none"/>
    <path d="M 165.839 197.166L 177.995 197.166L 177.995 188.971L 165.839 188.971L 165.839 197.166z" style="stroke:none; fill-rule:evenodd; fill:#000000"/>
    <path d="M 109.862 197.166L 122.007 197.166L 122.007 188.971L 109.862 188.971L 109.862 197.166z" style="stroke:none; fill-rule:evenodd; fill:#000000"/>
    <path d="M 180.812 214.03L 161.011 214.03" style="stroke:#000000; stroke-width:5.2312000000000003; fill:none"/>
    <path d="M 114.894 225.338L 114.894 207.334" style="stroke:#000000; stroke-width:5.2312000000000003; fill:none"/>
    <path d="M 123.905 216.327L 105.886 216.327" style="stroke:#000000; stroke-width:5.2312000000000003; fill:none"/>
    <path d="M 176.39 63.0964L 177.073 63.5734L 167.644 137.147L 168.565 137.147L 182.823 120.581C 181.667 127.956 177.991 135.545 177.073 143.135L 181.905 139.698L 219.851 107.948L 180.983 177.166L 180.983 177.639C 188.784 176.956 196.163 173.495 203.987 172.127L 186.737 185.909C 183.058 185.674 179.147 186.151 175.679 185.463C 176.39 184.311 179.147 182.709 177.991 181.081C 174.312 182.471 170.636 184.311 166.937 185.463L 167.175 183.862L 180.511 158.545L 180.511 157.866L 179.147 157.866L 158.452 170.971C 157.062 171.416 156.827 170.288 156.612 169.577L 159.136 145.209L 158.663 144.76L 150.155 161.752C 148.999 158.073 148.999 153.483 147.87 149.592C 145.323 154.428 144.878 161.303 142.12 165.666L 131.749 138.538L 131.538 138.303L 130.854 140.377L 127.151 170.971L 126.706 171.416L 114.519 156.026C 114.073 165.428 115.202 174.858 115.647 184.549C 111.765 184.073 104.854 186.831 103.468 181.998L 84.1634 136.936L 84.1634 136.229L 104.62 157.159L 105.093 156.241L 95.1944 106.112L 115.647 135.784L 116.358 134.866L 115.886 57.6084L 115.886 56.4244L 138.651 121.288L 141.882 129.557L 142.565 129.557L 147.632 102.432L 147.632 101.983C 150.155 110.495 150.39 119.92 152.913 128.428L 153.62 128.428L 159.819 112.331L 175.913 65.4054C 175.913 65.3504 175.94 65.2214 175.94 65.1164" style="stroke:none; fill-rule:evenodd; fill:#000000"/>
    <path d="M 29.6204 265.393L 2.62042 265.393" style="stroke:#000000; stroke-width:0.5; fill:none"/>
    <path d="M 38.6204 274.393L 38.6204 301.393" style="stroke:#000000; stroke-width:0.5; fill:none"/>
    <path d="M 29.6204 38.6204L 2.62042 38.6204" style="stroke:#000000; stroke-width:0.5; fill:none"/>
    <path d="M 38.6204 29.6204L 38.6204 2.62042" style="stroke:#000000; stroke-width:0.5; fill:none"/>
    <path d="M 274.394 38.6204L 301.394 38.6204" style="stroke:#000000; stroke-width:0.5; fill:none"/>
    <path d="M 265.394 29.6204L 265.394 2.62042" style="stroke:#000000; stroke-width:0.5; fill:none"/>
    <path d="M 274.394 265.393L 301.394 265.393" style="stroke:#000000; stroke-width:0.5; fill:none"/>
    <path d="M 265.394 274.393L 265.394 301.393" style="stroke:#000000; stroke-width:0.5; fill:none"/>
  </g>
</svg>

<svg viewBox="0 0 304.01 304.01"><g transform="matrix(1.35328 0 0 1.35328-53.21-52.19)"><path d="m100.09 247.59h87.6v-50.17h-87.6v50.17z" fill="none" stroke="#000" stroke-width="4.284"/><g fill-rule="evenodd"><path d="m165.84 197.17h12.156v-8.195h-12.156v8.195"/><path d="m109.86 197.17h12.145v-8.195h-12.145v8.195"/></g><g fill="none" stroke="#000" stroke-width="5.231"><path d="m180.81 214.03h-19.801"/><path d="m114.89 225.34v-18"/><path d="m123.91 216.33h-18.02"/></g><path d="m176.39 63.1l.683.477-9.429 73.57h.921l14.258-16.566c-1.156 7.375-4.832 14.964-5.75 22.554l4.832-3.437 37.946-31.75-38.868 69.22v.473c7.801-.683 15.18-4.144 23-5.512l-17.25 13.782c-3.679-.235-7.59.242-11.06-.446.711-1.152 3.468-2.754 2.312-4.382-3.679 1.39-7.355 3.23-11.05 4.382l.238-1.601 13.336-25.317v-.679h-1.364l-20.695 13.1c-1.39.445-1.625-.683-1.84-1.394l2.524-24.368-.473-.449-8.508 16.992c-1.156-3.679-1.156-8.269-2.285-12.16-2.547 4.836-2.992 11.711-5.75 16.07l-10.371-27.13-.211-.235-.684 2.074-3.703 30.594-.445.445-12.187-15.39c-.446 9.402.683 18.832 1.128 28.523-3.882-.476-10.793 2.282-12.179-2.551l-19.305-45.06v-.707l20.457 20.93.473-.918-9.899-50.13 20.453 29.672.711-.918-.472-77.26v-1.184l22.765 64.864 3.231 8.269h.683l5.067-27.12v-.449c2.523 8.512 2.758 17.937 5.281 26.445h.707l6.199-16.1 16.09-46.926c0-.055.027-.184.027-.289" fill-rule="evenodd"/></g></svg>
